X: 1
T: Caislen An Oir
M: 4/4
L: 1/8
R: hornpipe
K: Gdor
|: GF | DGGF G2 (3A=Bc | dcde f2ga | gedc AdcA | DGGE FEDC |
DGGF G2 (3A=Bc | dcde f2ga | gfdc AdcA | G2GF G2 :|
|: (3A=Bc | dgga _b2 ag | gfde f2ga | gfdc AdcA | DGGE FEDC |
DGGF G2 (3A=Bc | dcde f2ga | gfdc AdcA | G2GF G2 :|
